X:1
T:Title
%%score { ( 1 3 ) | ( 2 4 ) }
L:1/8
M:4/4
K:F
V:1 treble nm="Grand Piano"
V:3 treble 
V:2 bass 
V:4 bass 
V:1
 z4 z[Q:1/4=90] CAG | [A,F]3 E [A,F][CA][_Ed][EA] | [Dc]2 [DB]2- [DB][EG][EG][FA] | [EGB]3 c edcB | %4
 [FA]6[K:bass][K:treble] z2 | [A,F]3 E [A,F][CA][_Ed][EA] | [Dc]2 [DB]2- [DB]FFG | %7
 [CA]3 A [=B,A]GAG |[M:11/16] [A,F]/-[A,F]/-[A,F]/-[A,F]/-[A,F]/-[A,F]/-[A,F]/-[A,F]-<[A,F] | %9
[M:3/8] cdc |[M:4/4] z CCC C[FB][FA][EG] | A6 z2 | GA=BA G2 d2 | %13
[M:17/16] d-[B,d-][B,d-][B,d]c3/2[Ec][Ed][Ec] |[M:4/4] A3 A AAGA | c2 B2- Bfed | %16
 c3 F F2 [EG]2[Q:1/4=89][Q:1/4=87][Q:1/4=86][Q:1/4=85][Q:1/4=83][Q:1/4=82][Q:1/4=81][Q:1/4=79][Q:1/4=78][Q:1/4=77][Q:1/4=75][Q:1/4=74][Q:1/4=73][Q:1/4=71][Q:1/4=70][Q:1/4=69] | %17
[M:5/8] [CF]-[CF]- [CF]3 |] %18
V:2
 z4 z A,CB, | F,,C,F,G, F,,F,A,C | G,,B,,D,G, B,B,B,C | E,G,[K:treble]C[EA] [Cc][B,B][A,A][G,G] | %4
 F,4- F,A,CB, | F,,C,F,G, F,,F,A,C | G,,B,,D,G, B,DD^C | F,,C,F,C [G,,F,]=B,[C,E,_B,]B, | %8
[M:11/16] F,,/-F,,/-F,,/-F,,/-F,,/-F,,/-F,,/-F,,-<F,, |[M:3/8] [F,A,F][F,B,F][F,A,F] | %10
[M:4/4] [G,B,][G,B,][G,B,][G,B,] [G,B,][C,C][C,C][C,C] | %11
 [F,CF][F,C][F,C][F,C] F,[K:treble][F,CF][F,CF][F,CF] | %12
 [G,CE][G,=B,F][G,DF][G,CF] [G,B,F]2[K:bass] [G,,B,F]2 | %13
[M:17/16] [C,B,]C,C,C,[C,B,]3/2[C,B,][C,B,][C,C] | %14
[M:4/4] [F,CF]3 [F,CF] [F,C_E][F,CE][F,B,E][F,CE] | %15
 [G,B,D]2 [G,B,D]2- [G,B,D][G,=B,F][G,B,F][G,B,F] | [A,CF]3[K:bass] [F,A,C] [D,A,D]2 [C,B,]2 | %17
[M:5/8] [F,A,]-[F,A,]- [F,A,]3 |] %18
V:3
 x8 | x8 | x8 | x8 | z[K:bass] A,,C,A,, F,,C[K:treble]AG | x8 | x8 | x8 |[M:11/16] x11/2 | %9
[M:3/8] x3 |[M:4/4] E6 z2 | z FED CAAA | x8 |[M:17/16] E/-E/-E/-E/-E/-E/-E/-E-<E z/ z/ z/ z/ z | %14
[M:4/4] x8 | x8 | x8 |[M:5/8] x5 |] %18
V:4
 x8 | x8 | x8 | x2[K:treble] x6 | .F,,2 z2 z4 | x8 | x8 | x8 |[M:11/16] x11/2 |[M:3/8] x3 | %10
[M:4/4] x8 | x5[K:treble] x3 | x6[K:bass] x2 |[M:17/16] x17/2 |[M:4/4] x8 | x8 | x3[K:bass] x5 | %17
[M:5/8] x5 |] %18

